X:5
T:Schottisch FC oct Anm.
M:2/4
L:1/8
K:Fmaj
"_c"c/2"_d"d/2 |: "C7""_c"c"_b"B E>G | "F"GF A,>C | "C7""_c"C/2"_b"B,/2"_a"A, "_g"G,/2"_e"E/2E | "F"G/2F/2F Cc/2d/2 | "C7""_c"c"_b"B E>G | "F"GF A,>C | 
"C7""_c"C/2"_b"B,/2B, G,/2E/2E |1 "F"FF Fc/2d/2 :|2 "F"FF F z |: [K:Cmaj] "C""_g"G"_f#"^F/2"_g"G/2 A>G | "G7"GF F2 | FE/2F/2 G>F | [L:1/16] "C"EFGA "_h"B"_c"c"_d"d"_c"c | [L:1/8] 
"_g"G"_f#"^F/2"_g"G/2 A>G | "G7"GF F2 | [L:1/16] GFEF GFED |1 [L:1/8] "C"CC Cz :|2 "C"CC Cc/2d/2 |: "C"EG/2c/2 CE/2G/2 | 
"G7"B,D/2F/2 B2 | AG B,/2D/2G | "C"AG C/2E/2G/2F/2 | EG/2c/2 CE/2G/2 | "G7"B,D/2F/2 B2 | A>G B,/2D/2G/2B,/2 | "C"CC C z :| 

